X: 11701
T: Eirikssons'
R: jig
M: 6/8
K: Dmajor
|:a2g fed|~e2d cBA|Bcd efg|fed cBA|
a2g fed|~e2d cBA|Bcd efg|fec d3:|
|:ABc def|g2e f2A|Bee fed|cAA ABA|
ABc def|g2e f2A|Bed cBc|efe dcB:|
|:ABA ~F2G|A2d d2A|BAB g2f|a2f efe|
ABA ~F2G|Add d2A|Bed cBc|1 efe dcB:|2 efe dBd||
|:e2d cBA|dcd fed|dfa dfa|gfe dcB|
ABA ~F2G|Add d2A|Bed cBc|efe dcd:|

